**harm	**harte	**kern	**silbe	**kern	**silbe	**rhyme	**timestamp	**phrase	**leadinstrument
*M4/4	*M4/4	*ICvox	*	*ICvox	*	*	*	*	*
*	*	*VRlead	*	*VRharmonize*VRbacking*VRresponse	*	*	*	*	*
*	*	*Hstimme	*	*Nstimme	*	*	*	*	*
*B:	*B:	*B:	*	*B:	*	*	*	*	*
*	*	*M4/4	*	*M4/4	*	*	*	*	*
*	*	*clefC3	*	*clefC3	*	*	*	*	*
1r;	N	r;	.	r;	.	.	0	.	r
=1	=1	=1	=1	=1	=1	=1	=1	=1	=1
*>Letter>A	*>Letter>A	*>Letter>A	*>Letter>A	*>Letter>A	*>Letter>A	*>Letter>A	*>Letter>A	*>Letter>A	*>Letter>A
*>Label>Intro	*>Label>Intro	*>Label>Intro	*>Label>Intro	*>Label>Intro	*>Label>Intro	*>Label>Intro	*>Label>Intro	*>Label>Intro	*>Label>Intro
1I	B:maj	1r	.	1r	.	.	0.8	newline	r
=2	=2	=2	=2	=2	=2	=2	=2	=2	=2
1I	B:maj	1r	.	1r	.	.	2.394	.	r
=3	=3	=3	=3	=3	=3	=3	=3	=3	=3
1I	B:sus4	1r	.	1r	.	.	3.988	.	r
=4	=4	=4	=4	=4	=4	=4	=4	=4	=4
1I	B:sus4	1r	.	1r	.	.	5.581	.	r
=5	=5	=5	=5	=5	=5	=5	=5	=5	=5
1Ic	B:maj/5	1r	.	1r	.	.	7.175	newline	r
=6	=6	=6	=6	=6	=6	=6	=6	=6	=6
1Ic	B:maj/5	1r	.	1r	.	.	8.787	.	r
=7	=7	=7	=7	=7	=7	=7	=7	=7	=7
1V	F#:sus4(b7)	1r	.	1r	.	.	10.399	.	r
=8	=8	=8	=8	=8	=8	=8	=8	=8	=8
1V	F#:sus4(b7)	1r	.	1r	.	.	12.011	.	r
=9	=9	=9	=9	=9	=9	=9	=9	=9	=9
*>Letter>B	*>Letter>B	*>Letter>B	*>Letter>B	*>Letter>B	*>Letter>B	*>Letter>B	*>Letter>B	*>Letter>B	*>Letter>B
*>Label>Verse	*>Label>Verse	*>Label>Verse	*>Label>Verse	*>Label>Verse	*>Label>Verse	*>Label>Verse	*>Label>Verse	*>Label>Verse	*>Label>Verse
1I	B:maj	2r	.	1r	.	.	13.623	newline	voice
.	.	6d#	Sweet	.	.	.	.	.	.
.	.	6f#	tal-	.	.	.	.	.	.
.	.	6g#	-kin'	.	.	.	.	.	.
=10	=10	=10	=10	=10	=10	=10	=10	=10	=10
1I	B:maj	6g#	guy	1r	.	A	15.242	.	voice
.	.	[3f#	_	.	.	.	.	.	.
.	.	2f#]	_	.	.	.	.	.	.
=11	=11	=11	=11	=11	=11	=11	=11	=11	=11
1Vb	F#:maj/3	6r	.	1r	.	.	16.862	.	voice
.	.	6c#	tal-	.	.	.	.	.	.
.	.	6c#	-kin'	.	.	.	.	.	.
.	.	6c#	sweet	.	.	.	.	.	.
.	.	6f#	kin-	.	.	.	.	.	.
.	.	6g#	-da	.	.	.	.	.	.
=12	=12	=12	=12	=12	=12	=12	=12	=12	=12
1Vb	F#:maj/3	6g#	lies!	1r	.	A	18.481	.	voice
.	.	[3f#	_	.	.	.	.	.	.
.	.	2f#]	_	.	.	.	.	.	.
=13	=13	=13	=13	=13	=13	=13	=13	=13	=13
1iiioc	D#:dim/b5	4r	.	1r	.	.	20.101	newline	voice
.	.	4d#	Don't	.	.	.	.	.	.
.	.	4f#	you	.	.	.	.	.	.
.	.	4g#	be-	.	.	.	.	.	.
=14	=14	=14	=14	=14	=14	=14	=14	=14	=14
1iiioc	D#:dim/b5	4.a	-lieve	1r	.	.	21.724	.	voice
.	.	8g#	in	.	.	.	.	.	.
.	.	6f#	him,	.	.	.	.	.	.
.	.	6e	if	.	.	.	.	.	.
.	.	6d#	you	.	.	.	.	.	.
=15	=15	=15	=15	=15	=15	=15	=15	=15	=15
1IVb	E:maj/3	4.f#	do	1r	.	.	23.347	.	voice
.	.	8r	.	.	.	.	.	.	.
.	.	6f#	he'll	.	.	.	.	.	.
.	.	6e	make	.	.	.	.	.	.
.	.	6d#	you	.	.	.	.	.	.
=16	=16	=16	=16	=16	=16	=16	=16	=16	=16
1IVb	E:maj/3	1e	cry.	1r	.	A	24.97	.	voice
=17	=17	=17	=17	=17	=17	=17	=17	=17	=17
1ivb	E:min/b3	4r	.	1r	.	.	26.594	newline	voice
.	.	4c#	He'll	.	.	.	.	.	.
.	.	4e	send	.	.	.	.	.	.
.	.	4f#	you	.	.	.	.	.	.
=18	=18	=18	=18	=18	=18	=18	=18	=18	=18
1ivb	E:min/b3	8g	flo-	1r	.	.	28.196	.	voice
.	.	4f#	-wers	.	.	.	.	.	.
.	.	8r	.	.	.	.	.	.	.
.	.	8r	.	.	.	.	.	.	.
.	.	8e	and	.	.	.	.	.	.
.	.	8e	paint	.	.	.	.	.	.
.	.	8c#	the	.	.	.	.	.	.
=19	=19	=19	=19	=19	=19	=19	=19	=19	=19
1Ic	B:maj/5	4e	town	1r	.	.	29.798	.	voice
.	.	8d#	with	.	.	.	.	.	.
.	.	8e	a-	.	.	.	.	.	.
.	.	8d#	-no-	.	.	.	.	.	.
.	.	4B	-ther	.	.	.	.	.	.
.	.	[8F#	girl	.	.	.	.	.	.
=20	=20	=20	=20	=20	=20	=20	=20	=20	=20
1Ic	B:maj/5	2F#]	_	1r	.	.	31.401	.	voice
.	.	4r	.	.	.	.	.	.	.
.	.	8f#	He's	.	.	.	.	.	.
.	.	8d#	a	.	.	.	.	.	.
=21	=21	=21	=21	=21	=21	=21	=21	=21	=21
1V7	F#:7	4f#	sweet	1r	.	.	33.003	newline	voice
.	.	8f#	tal-	.	.	.	.	.	.
.	.	8f#	-kin'	.	.	.	.	.	.
.	.	8g#	guy	.	.	A	.	.	.
.	.	[4.f#	_	.	.	.	.	.	.
=22	=22	=22	=22	=22	=22	=22	=22	=22	=22
1V7	F#:7	2f#]	_	4f#	Sweet	.	34.621	.	voice
.	.	.	.	8f#	tal-	.	.	.	.
.	.	.	.	8f#	-kin'	.	.	.	.
.	.	4r	.	8g#	guy	A	.	.	.
.	.	.	.	[4.f#	_	.	.	.	.
.	.	8f#	but	.	.	.	.	.	.
.	.	8d#	he's	.	.	.	.	.	.
=23	=23	=23	=23	=23	=23	=23	=23	=23	=23
1V7	F#:7	4f#	my	2f#]	_	.	36.239	.	voice
.	.	8f#	kin-	.	.	.	.	.	.
.	.	8f#	-da	.	.	.	.	.	.
.	.	8g#	guy	2r	.	A	.	.	.
.	.	[4.f#	_	.	.	.	.	.	.
=24	=24	=24	=24	=24	=24	=24	=24	=24	=24
1V7	F#:7	2f#]	_	4f#	Sweet	.	37.856	.	voice
.	.	.	.	8f#	tal-	.	.	.	.
.	.	.	.	8f#	-kin'	.	.	.	.
.	.	2r	.	8g#	guy	A	.	.	.
.	.	.	.	[4.f#	_	.	.	.	.
=25	=25	=25	=25	=25	=25	=25	=25	=25	=25
*>Letter>B	*>Letter>B	*>Letter>B	*>Letter>B	*>Letter>B	*>Letter>B	*>Letter>B	*>Letter>B	*>Letter>B	*>Letter>B
*>Label>Verse	*>Label>Verse	*>Label>Verse	*>Label>Verse	*>Label>Verse	*>Label>Verse	*>Label>Verse	*>Label>Verse	*>Label>Verse	*>Label>Verse
1I	B:maj	2r	.	4f#]	_	.	39.474	newline	voice
.	.	.	.	4r	.	.	.	.	.
.	.	8d#	Swee-	2r	.	.	.	.	.
.	.	8f#	-ter	.	.	.	.	.	.
.	.	8g#	than	.	.	.	.	.	.
.	.	[8f#	su	.	.	.	.	.	.
=26	=26	=26	=26	=26	=26	=26	=26	=26	=26
1I	B:maj	8f#]	_	2r	.	.	41.084	.	voice
.	.	[4.g#	gar	.	.	.	.	.	.
.	.	4g#]	_	2b	Ooh!	.	.	.	.
.	.	4r	.	.	.	.	.	.	.
=27	=27	=27	=27	=27	=27	=27	=27	=27	=27
1Vb	F#:maj/3	2r	.	1r	.	.	42.695	.	voice
.	.	8c#	Kis-	.	.	.	.	.	.
.	.	8f#	-ses	.	.	.	.	.	.
.	.	8g#	like	.	.	.	.	.	.
.	.	8g#	wine	.	.	A	.	.	.
=28	=28	=28	=28	=28	=28	=28	=28	=28	=28
1Vb	F#:maj/3	1f#	_	4r	.	.	44.306	.	voice
.	.	.	.	8b#q	_	.	.	.	.
.	.	.	.	4cc#	Oh!	.	.	.	.
.	.	.	.	8a#	He's	.	.	.	.
.	.	.	.	4f#	so	.	.	.	.
.	.	.	.	8f#q	_	.	.	.	.
.	.	.	.	[8d#	fine	A	.	.	.
=29	=29	=29	=29	=29	=29	=29	=29	=29	=29
1iiioc	D#:dim/b5	4r	.	1d#_	_	.	45.916	newline	voice
.	.	4d#	Don't	.	.	.	.	.	.
.	.	4f#	let	.	.	.	.	.	.
.	.	4g#	him	.	.	.	.	.	.
=30	=30	=30	=30	=30	=30	=30	=30	=30	=30
1iiioc	D#:dim/b5	6a	un-	1d#]	.	.	47.525	.	voice
.	.	6g#	-der	.	.	.	.	.	.
.	.	6a	your	.	.	.	.	.	.
.	.	6g#	skin	.	.	B	.	.	.
.	.	3f#	_	.	.	.	.	.	.
=31	=31	=31	=31	=31	=31	=31	=31	=31	=31
1IVb	E:maj/3	4r	.	1r	.	.	49.134	.	voice
.	.	4e	cuz	.	.	.	.	.	.
.	.	6f#	you'll	.	.	.	.	.	.
.	.	6e	ne-	.	.	.	.	.	.
.	.	6d#	-ver	.	.	.	.	.	.
=32	=32	=32	=32	=32	=32	=32	=32	=32	=32
1IVb	E:maj/3	1e	win.	4r	.	B	50.743	.	voice
.	.	.	.	8b	No,	.	.	.	.
.	.	.	.	8b	you	.	.	.	.
.	.	.	.	8g#	ne-	.	.	.	.
.	.	.	.	4e	-ver	.	.	.	.
.	.	.	.	[8c#	will	B	.	.	.
=33	=33	=33	=33	=33	=33	=33	=33	=33	=33
1ivb	E:min/b3	4r	.	1c#_	_	.	52.352	newline	voice
.	.	4c#	Don't	.	.	.	.	.	.
.	.	4e	give	.	.	.	.	.	.
.	.	4f#	him	.	.	.	.	.	.
=34	=34	=34	=34	=34	=34	=34	=34	=34	=34
1ivb	E:min/b3	4.g	love	2c#_	_	.	53.962	.	voice
.	.	8g	to-	.	.	.	.	.	.
.	.	4f#	-day	8c#]	_	C	.	.	.
.	.	.	.	8r	.	.	.	.	.
.	.	8r	.	4r	.	.	.	.	.
.	.	8e	to-	.	.	.	.	.	.
=35	=35	=35	=35	=35	=35	=35	=35	=35	=35
1Ic	B:maj/5	6e	-mor-	1r	.	.	55.573	.	voice
.	.	6d#	-row	.	.	.	.	.	.
.	.	6e	he's	.	.	.	.	.	.
.	.	4d#	on	.	.	.	.	.	.
.	.	4B	his	.	.	.	.	.	.
=36	=36	=36	=36	=36	=36	=36	=36	=36	=36
1Ic	B:maj/5	[2F#	way	1r	.	C	57.183	.	voice
.	.	8F#]	_	.	.	.	.	.	.
.	.	8r	.	.	.	.	.	.	.
.	.	8f#	He's	.	.	.	.	.	.
.	.	8d#	a	.	.	.	.	.	.
=37	=37	=37	=37	=37	=37	=37	=37	=37	=37
1V7	F#:7	4f#	sweet	1r	.	.	58.794	newline	voice
.	.	8f#	tal-	.	.	.	.	.	.
.	.	8f#	-kin'	.	.	.	.	.	.
.	.	8g#	guy	.	.	A	.	.	.
.	.	[4.f#	_	.	.	.	.	.	.
=38	=38	=38	=38	=38	=38	=38	=38	=38	=38
1V7	F#:7	2f#]	_	4f#	Sweet	.	60.393	.	voice
.	.	.	.	8f#	tal-	.	.	.	.
.	.	.	.	8f#	-kin'	.	.	.	.
.	.	4r	.	8g#	guy	A	.	.	.
.	.	.	.	[4.f#	_	.	.	.	.
.	.	8f#	but	.	.	.	.	.	.
.	.	8d#	he's	.	.	.	.	.	.
=39	=39	=39	=39	=39	=39	=39	=39	=39	=39
1V7	F#:7	4f#	my	2f#]	_	.	61.992	.	voice
.	.	8f#	kin-	.	.	.	.	.	.
.	.	8f#	-da	.	.	.	.	.	.
.	.	8g#	guy	2r	.	A	.	.	.
.	.	[4.f#	_	.	.	.	.	.	.
=40	=40	=40	=40	=40	=40	=40	=40	=40	=40
1V7	F#:7	1f#]	.	4f#	Sweet	.	63.592	.	voice
.	.	.	.	8f#	tal-	.	.	.	.
.	.	.	.	8f#	-kin'	.	.	.	.
.	.	.	.	8g#	guy	A	.	.	.
.	.	.	.	4.f#	_	.	.	.	.
=41	=41	=41	=41	=41	=41	=41	=41	=41	=41
*>Letter>C	*>Letter>C	*>Letter>C	*>Letter>C	*>Letter>C	*>Letter>C	*>Letter>C	*>Letter>C	*>Letter>C	*>Letter>C
*>Label>Transition	*>Label>Transition	*>Label>Transition	*>Label>Transition	*>Label>Transition	*>Label>Transition	*>Label>Transition	*>Label>Transition	*>Label>Transition	*>Label>Transition
1-III	D:maj	4r	.	4r	.	.	65.191	newline	voice
.	.	4a	Why	4f# 4a	Why	.	.	.	.
.	.	4g	do	4f# 4a	do	.	.	.	.
.	.	4f#	I	4f# 4a	I	.	.	.	.
=42	=42	=42	=42	=42	=42	=42	=42	=42	=42
1-VI	G:maj	4f#	love	4g 4b	love	.	66.81	.	voice
.	.	4e	him	4g 4b	him	.	.	.	.
.	.	4d	like	4g 4b	like	.	.	.	.
.	.	4e	I	4g 4b	I	.	.	.	.
=43	=43	=43	=43	=43	=43	=43	=43	=43	=43
1-II	C:maj	[2g	do?	1e 1g 1cc	do?	.	68.429	.	voice
.	.	8g]	_	.	.	.	.	.	.
.	.	8a	_	.	.	.	.	.	.
.	.	4g	_	.	.	.	.	.	.
=44	=44	=44	=44	=44	=44	=44	=44	=44	=44
1V7	F#:7	1f#	_	1c# 1f# 1a#	_	.	70.048	.	voice
=45	=45	=45	=45	=45	=45	=45	=45	=45	=45
*>Letter>B	*>Letter>B	*>Letter>B	*>Letter>B	*>Letter>B	*>Letter>B	*>Letter>B	*>Letter>B	*>Letter>B	*>Letter>B
*>Label>Instrumental	*>Label>Instrumental	*>Label>Instrumental	*>Label>Instrumental	*>Label>Instrumental	*>Label>Instrumental	*>Label>Instrumental	*>Label>Instrumental	*>Label>Instrumental	*>Label>Instrumental
1I	B:maj	1r	.	1r	.	.	71.667	newline	voice cello oboe
=46	=46	=46	=46	=46	=46	=46	=46	=46	=46
1I	B:maj	1r	.	1r	.	.	73.276	.	voice cello oboe
=47	=47	=47	=47	=47	=47	=47	=47	=47	=47
1Vb	F#:maj/3	1r	.	1r	.	.	74.885	.	voice cello oboe
=48	=48	=48	=48	=48	=48	=48	=48	=48	=48
1Vb	F#:maj/3	1r	.	1r	.	.	76.494	.	voice cello oboe
=49	=49	=49	=49	=49	=49	=49	=49	=49	=49
1iiioc	D#:dim/b5	1r	.	1r	.	.	78.103	newline	voice cello oboe
=50	=50	=50	=50	=50	=50	=50	=50	=50	=50
1iiioc	D#:dim/b5	1r	.	1r	.	.	79.73	.	voice cello oboe
=51	=51	=51	=51	=51	=51	=51	=51	=51	=51
1IVb	E:maj/3	1r	.	1r	.	.	81.357	.	voice cello oboe
=52	=52	=52	=52	=52	=52	=52	=52	=52	=52
1IVb	E:maj/3	1r	.	1r	.	.	82.983	.	voice cello oboe
=53	=53	=53	=53	=53	=53	=53	=53	=53	=53
1ivb	E:min/b3	[1g	Whoo	[1e [1g [1b	Whoo	.	84.61	newline	voice
=54	=54	=54	=54	=54	=54	=54	=54	=54	=54
1ivb	E:min/b3	2g]	_	2.e_ 2.g_ 2.b]	_	.	86.23	.	voice
.	.	4f#	_	.	.	.	.	.	.
.	.	4e	.	4e] 4g] 4cc#	_	.	.	.	.
=55	=55	=55	=55	=55	=55	=55	=55	=55	=55
1Ic	B:maj/5	1r	.	[1d# [1f# [1b	_	.	87.849	.	voice
=56	=56	=56	=56	=56	=56	=56	=56	=56	=56
1Ic	B:maj/5	2r	.	2d#_ 2f#_ 2b_	_	.	89.469	.	voice
.	.	4r	.	8d#] 8f#] 8b]	_	.	.	.	.
.	.	.	.	8r	.	.	.	.	.
.	.	8f#	He's	4r	.	.	.	.	.
.	.	8d#	a	.	.	.	.	.	.
=57	=57	=57	=57	=57	=57	=57	=57	=57	=57
1V7	F#:7	4f#	sweet	2r	.	.	91.089	newline	cello oboe
.	.	8f#	tal-	.	.	.	.	.	.
.	.	8f#	-kin',	.	.	.	.	.	.
.	.	2r	.	4g#	sweet	.	.	.	.
.	.	.	.	8f#	tal-	.	.	.	.
.	.	.	.	8f#	-kin',	.	.	.	.
=58	=58	=58	=58	=58	=58	=58	=58	=58	=58
1V7	F#:7	4f#	sweet	2r	.	.	92.691	.	cello oboe
.	.	8f#	tal-	.	.	.	.	.	.
.	.	8f#	-kin',	.	.	.	.	.	.
.	.	2r	.	4g#	sweet	.	.	.	.
.	.	.	.	8f#	tal-	.	.	.	.
.	.	.	.	8f#	-kin',	.	.	.	.
=59	=59	=59	=59	=59	=59	=59	=59	=59	=59
1V7	F#:7	[1a#	guy	[1e [1f#	guy	A	94.293	.	cello oboe
=60	=60	=60	=60	=60	=60	=60	=60	=60	=60
1V7	F#:7	2.a#_	_	2.e_ 2.f#_	_	.	95.895	.	cello oboe
.	.	8a#]	_	8e] 8f#]	_	.	.	.	.
.	.	8r	.	8r	.	.	.	.	.
=61	=61	=61	=61	=61	=61	=61	=61	=61	=61
*>Letter>B	*>Letter>B	*>Letter>B	*>Letter>B	*>Letter>B	*>Letter>B	*>Letter>B	*>Letter>B	*>Letter>B	*>Letter>B
*>Label>Chorus	*>Label>Chorus	*>Label>Chorus	*>Label>Chorus	*>Label>Chorus	*>Label>Chorus	*>Label>Chorus	*>Label>Chorus	*>Label>Chorus	*>Label>Chorus
1I	B:maj	8f#	Stay	[1B	Stay	.	97.498	newline	cello oboe
.	.	8e	a-	.	.	.	.	.	.
.	.	8d#	-way	.	.	.	.	.	.
.	.	8c#	from	.	.	.	.	.	.
.	.	4B	him,	.	.	B	.	.	.
.	.	8f#	stay	.	.	.	.	.	.
.	.	8e	a-	.	.	.	.	.	.
=62	=62	=62	=62	=62	=62	=62	=62	=62	=62
1I	B:maj	8d#	-way	4B]	_	.	99.12	.	cello oboe
.	.	8c#	from	.	.	.	.	.	.
.	.	4B	him,	4B	a-	B	.	.	.
.	.	8f#	don't	4c#	-way	.	.	.	.
.	.	8e	be-	.	.	.	.	.	.
.	.	8d#	-lieve	4d#	from	.	.	.	.
.	.	8c#	his	.	.	.	.	.	.
=63	=63	=63	=63	=63	=63	=63	=63	=63	=63
1Vb	F#:maj/3	4f#	ly-	[1A#	him	(A	100.743	.	cello oboe
.	.	[2.c#	-ing	.	.	a)	.	.	.
=64	=64	=64	=64	=64	=64	=64	=64	=64	=64
1Vb	F#:maj/3	2c#_	_	4A#]	_	.	102.365	.	cello oboe
.	.	.	.	4r	.	.	.	.	.
.	.	8c#]	_	4d#	No,	.	.	.	.
.	.	8r	.	.	.	.	.	.	.
.	.	4r	.	4f#	no,	.	.	.	.
=65	=65	=65	=65	=65	=65	=65	=65	=65	=65
1iiioc	D#:dim/b5	8f#	No,	1A	no	.	103.987	newline	cello oboe
.	.	8e	you'll	.	.	.	.	.	.
.	.	8d#	ne-	.	.	.	.	.	.
.	.	8c#	-ver	.	.	.	.	.	.
.	.	4B#	win,	.	.	B	.	.	.
.	.	8f#	no,	.	.	.	.	.	.
.	.	8e	you'll	.	.	.	.	.	.
=66	=66	=66	=66	=66	=66	=66	=66	=66	=66
1iiioc	D#:dim/b5	8d#	ne-	4r	.	.	105.607	.	cello oboe
.	.	8c#	-ver	.	.	.	.	.	.
.	.	4B#	win,	4B#	you'll	B	.	.	.
.	.	8f#	lo-	4d#	ne-	.	.	.	.
.	.	8e	-ser's	.	.	.	.	.	.
.	.	8d#	in	4f#	-ver	B	.	.	.
.	.	8c#	for	.	.	.	.	.	.
=67	=67	=67	=67	=67	=67	=67	=67	=67	=67
1IVb	E:maj/3	4e	cry-	[1e	win	(A	107.226	.	cello oboe
.	.	[2.B	-ing	.	.	a)	.	.	.
=68	=68	=68	=68	=68	=68	=68	=68	=68	=68
1IVb	E:maj/3	2B_	_	2.e_	_	.	108.845	.	cello oboe
.	.	8B]	_	.	.	.	.	.	.
.	.	8r	.	.	.	.	.	.	.
.	.	4r	.	8e]	_	.	.	.	.
.	.	.	.	8r	.	.	.	.	.
=69	=69	=69	=69	=69	=69	=69	=69	=69	=69
1ivb	E:min/b3	4r	.	[1e [1g [1b	Whoo	.	110.464	newline	cello oboe
.	.	4c#	Don't	.	.	.	.	.	.
.	.	4e	give	.	.	.	.	.	.
.	.	4f#	him	.	.	.	.	.	.
=70	=70	=70	=70	=70	=70	=70	=70	=70	=70
1ivb	E:min/b3	4.g	love	2.e] 2.g] 2.b]	_	.	112.086	.	cello oboe
.	.	8g	to-	.	.	.	.	.	.
.	.	4f#	-day,	.	.	C	.	.	.
.	.	8r	.	4r	.	.	.	.	.
.	.	8e	to-	.	.	.	.	.	.
=71	=71	=71	=71	=71	=71	=71	=71	=71	=71
1Ic	B:maj/5	6e	-mor-	1r	.	.	113.708	.	cello oboe
.	.	6d#	-row	.	.	.	.	.	.
.	.	6e	he's	.	.	.	.	.	.
.	.	4d#	on	.	.	.	.	.	.
.	.	4B	his	.	.	.	.	.	.
=72	=72	=72	=72	=72	=72	=72	=72	=72	=72
1Ic	B:maj/5	[2F#	way	1r	.	C	115.33	.	cello oboe
.	.	8F#]	_	.	.	.	.	.	.
.	.	8r	.	.	.	.	.	.	.
.	.	8f#	He's	.	.	.	.	.	.
.	.	8d#	a	.	.	.	.	.	.
=73	=73	=73	=73	=73	=73	=73	=73	=73	=73
1V7	F#:7	4f#	sweet	2r	.	.	116.952	newline	cello oboe
.	.	8f#	tal-	.	.	.	.	.	.
.	.	8f#	-kin',	.	.	.	.	.	.
.	.	2r	.	4g#	sweet	.	.	.	.
.	.	.	.	8f#	tal-	.	.	.	.
.	.	.	.	8f#	-kin',	.	.	.	.
=74	=74	=74	=74	=74	=74	=74	=74	=74	=74
1V7	F#:7	4f#	sweet	2r	.	.	118.54	.	cello oboe
.	.	8f#	tal-	.	.	.	.	.	.
.	.	8f#	-kin',	.	.	.	.	.	.
.	.	2r	.	4g#	sweet	.	.	.	.
.	.	.	.	8e 8g#	tal-	.	.	.	.
.	.	.	.	8e 8g#	-kin',	.	.	.	.
=75	=75	=75	=75	=75	=75	=75	=75	=75	=75
1V7	F#:7	4f#	sweet	2r	.	.	120.127	.	cello oboe
.	.	8f#	tal-	.	.	.	.	.	.
.	.	8f#	-kin',	.	.	.	.	.	.
.	.	2r	.	4e 4g# 4b	sweet	.	.	.	.
.	.	.	.	8e 8g# 8b	tal-	.	.	.	.
.	.	.	.	8e 8g# 8b	-kin',	.	.	.	.
=76	=76	=76	=76	=76	=76	=76	=76	=76	=76
1V7	F#:7	4f#	sweet	2r	.	.	121.715	.	cello oboe
.	.	8f#	tal-	.	.	.	.	.	.
.	.	8f#	-kin',	.	.	.	.	.	.
.	.	2r	.	4e 4g# 4b	sweet	.	.	.	.
.	.	.	.	8e 8g# 8b	tal-	.	.	.	.
.	.	.	.	8e 8g# 8b	-kin',	.	.	.	.
=77	=77	=77	=77	=77	=77	=77	=77	=77	=77
1V7	F#:7	[1a#	guy	[1f# [1a# [1cc#	guy	A	123.303	.	cello oboe
=78	=78	=78	=78	=78	=78	=78	=78	=78	=78
1V7	F#:7	2.a#_	_	2.f#_ 2.a#_ 2.cc#_	_	.	124.891	.	cello oboe
.	.	8a#]	_	8f#] 8a#] 8cc#]	_	.	.	.	.
.	.	8r	.	8r	.	.	.	.	.
=79	=79	=79	=79	=79	=79	=79	=79	=79	=79
*>Letter>B	*>Letter>B	*>Letter>B	*>Letter>B	*>Letter>B	*>Letter>B	*>Letter>B	*>Letter>B	*>Letter>B	*>Letter>B
*>Label>Chorus	*>Label>Chorus	*>Label>Chorus	*>Label>Chorus	*>Label>Chorus	*>Label>Chorus	*>Label>Chorus	*>Label>Chorus	*>Label>Chorus	*>Label>Chorus
1I	B:maj	4r	.	[1B	Stay	C	126.479	newline	cello oboe
.	.	4d# 4f# 4b	Sweet,	.	.	.	.	.	.
.	.	4d# 4f# 4b	sweet,	.	.	.	.	.	.
.	.	8r	.	.	.	.	.	.	.
.	.	8d# 8f# 8b	sweet	.	.	.	.	.	.
=80	=80	=80	=80	=80	=80	=80	=80	=80	=80
1I	B:maj	8r	.	4B]	_	.	128.098	.	cello oboe
.	.	8d# 8f# 8b	tal	.	.	.	.	.	.
.	.	8r	.	4B	a-	.	.	.	.
.	.	8d# 8f# 8b	kin'	.	.	.	.	.	.
.	.	4.d# 4.f# 4.b	guy	4c#	-way	C	.	.	.
.	.	.	.	4d#	from	.	.	.	.
.	.	8r	.	.	.	.	.	.	.
=81	=81	=81	=81	=81	=81	=81	=81	=81	=81
1Vb	F#:maj/3	4r	.	[1A#	him	B	129.716	.	cello oboe
.	.	4c# 4f# 4a#	Sweet,	.	.	.	.	.	.
.	.	4c# 4f# 4a#	sweet,	.	.	.	.	.	.
.	.	8r	.	.	.	.	.	.	.
.	.	8c# 8f# 8a#	sweet	.	.	.	.	.	.
=82	=82	=82	=82	=82	=82	=82	=82	=82	=82
1Vb	F#:maj/3	8r	.	4A#]	_	.	131.335	.	cello oboe
.	.	8c# 8f# 8a#	tal	.	.	.	.	.	.
.	.	8r	.	4r	.	.	.	.	.
.	.	8c# 8f# 8a#	kin'	.	.	.	.	.	.
.	.	4.c# 4.f# 4.a#	guy	4d#	No,	A	.	.	.
.	.	.	.	4f#	no,	.	.	.	.
.	.	8r	.	.	.	.	.	.	.
=83	=83	=83	=83	=83	=83	=83	=83	=83	=83
1iiioc	D#:dim/b5	4r	.	1A	no	.	132.953	newline	cello oboe
.	.	4d# 4f# 4a	Sweet,	.	.	.	.	.	.
.	.	4d# 4f# 4a	sweet,	.	.	.	.	.	.
.	.	8r	.	.	.	.	.	.	.
.	.	8d# 8f# 8a	sweet	.	.	.	.	.	.
=84	=84	=84	=84	=84	=84	=84	=84	=84	=84
1iiioc	D#:dim/b5	8r	.	4r	.	.	134.596	.	cello oboe
.	.	8d# 8f# 8a	tal	.	.	.	.	.	.
.	.	8r	.	4B#	you'll	.	.	.	.
.	.	8d# 8f# 8a	kin'	.	.	.	.	.	.
.	.	4.d# 4.f# 4.a	guy	4d#	ne-	A	.	.	.
.	.	.	.	4f#	-ver	.	.	.	.
.	.	8r	.	.	.	.	.	.	.
=85	=85	=85	=85	=85	=85	=85	=85	=85	=85
1IVb	E:maj/3	4r	.	[1e	win	.	136.238	.	cello oboe
.	.	4B 4e 4g#	Sweet,	.	.	.	.	.	.
.	.	4B 4e 4g#	sweet,	.	.	.	.	.	.
.	.	8r	.	.	.	.	.	.	.
.	.	8B 8e 8g#	sweet	.	.	.	.	.	.
=86	=86	=86	=86	=86	=86	=86	=86	=86	=86
1IVb	E:maj/3	8r	.	2e_	_	.	137.881	.	cello oboe
.	.	8B 8e 8g#	tal	.	.	.	.	.	.
.	.	8r	.	.	.	.	.	.	.
.	.	8B 8e 8g#	kin'	.	.	.	.	.	.
.	.	4.B 4.e 4.g#	guy	8e]	_	A	.	.	.
.	.	.	.	4r	.	.	.	.	.
.	.	8r	.	8r	.	.	.	.	.
=87	=87	=87	=87	=87	=87	=87	=87	=87	=87
1ivb	E:min/b3	4r	.	[1e [1g [1b	Whoo	.	139.523	newline	voice
.	.	4B 4e 4g	Sweet,	.	.	.	.	.	.
.	.	4B 4e 4g	sweet,	.	.	.	.	.	.
.	.	8r	.	.	.	.	.	.	.
.	.	8B 8e 8g	sweet	.	.	.	.	.	.
=88	=88	=88	=88	=88	=88	=88	=88	=88	=88
1ivb	E:min/b3	8r	.	2.e_ 2.g_ 2.b]	_	.	141.038	.	voice
.	.	8B 8e 8g	tal	.	.	.	.	.	.
.	.	8r	.	.	.	.	.	.	.
.	.	8B 8e 8g	kin'	.	.	.	.	.	.
.	.	4.c# 4.e 4.g	guy	.	.	A	.	.	.
.	.	.	.	4e] 4g] 4cc#	_	.	.	.	.
.	.	8r	.	.	.	.	.	.	.
=89	=89	=89	=89	=89	=89	=89	=89	=89	=89
1Ic	B:maj/5	4r	.	[1d# [1f# [1b	_	.	142.552	.	voice
.	.	4B 4d# 4f#	Sweet,	.	.	.	.	.	.
.	.	4B 4d# 4f#	sweet,	.	.	.	.	.	.
.	.	8r	.	.	.	.	.	.	.
.	.	8B 8d# 8f#	sweet	.	.	.	.	.	.
=90	=90	=90	=90	=90	=90	=90	=90	=90	=90
1Ic	B:maj/5	8r	.	2d#_ 2f#_ 2b_	_	.	144.066	.	voice
.	.	8B 8d# 8f#	tal	.	.	.	.	.	.
.	.	8r	.	.	.	.	.	.	.
.	.	8B 8d# 8f#	kin'	.	.	.	.	.	.
.	.	4.B 4.d# 4.f#	guy	8d#] 8f#] 8b]	_	A	.	.	.
.	.	.	.	8r	.	.	.	.	.
.	.	.	.	4r	.	.	.	.	.
.	.	8r	.	.	.	.	.	.	.
1r;	N	r;	.	r;	.	.	145.58	.	r
1r;	N	r;	.	r;	.	.	148.389	.	r
*-	*-	*-	*-	*-	*-	*-	*-	*-	*-
!!!BillboardChartDate: 1966/05/07
!!!BillboardPeak: 10
!!!BillboardWeeksOnChart: 10
!!!COC: The Chiffons
!!!ENC: Nathaniel Condit-Schultz
!!!EST: Awating manual error checking and editing.
!!!OTL: Sweet Talkin' Guy
!!!RDF**harte: Chris Harte's syntax, used by MIREX
!!!RDF**harmony: **recip + pitch class of root + harmonic quality
!!!RDF**leadinstrument: original McGill primary instrumentation annotation
!!!RDF**phrase: newline = linebreak in original McGill transcription
!!!RDF**timestamp: McGill audio timestamp in seconds
!!!RDT: 2017/01/12/
!!!SampleActualRank: 86
!!!SampleID#: 0026
!!!SampleTargetRank: 88
!!!MBID: 8d5e61c0-8c81-4a62-bc46-c381da801769
